static/img/menus/ico-cam-reset.svg

<svg width="20" height="20" viewBox="0 0 20 20" fill="none" xmlns="http://www.w3.org/2000/svg">
<path d="M8.19529 0.830562C10.5823 0.189022 12.8516 0.481196 14.9696 1.70787L15.0507 1.75524L15.0497 1.75627C17.1577 2.94107 18.5388 4.74495 19.1779 7.13751C19.8175 9.53211 19.5039 11.8119 18.2428 13.9439C17.0329 16.1125 15.219 17.529 12.8275 18.1718C10.4426 18.8129 8.19461 18.515 6.11783 17.276L6.03674 17.2307C3.91872 16.0039 2.53182 14.1782 1.89209 11.7835C1.8171 11.5024 1.98337 11.2133 2.26365 11.1379C2.54383 11.0628 2.83204 11.2297 2.90721 11.5107C3.47583 13.6392 4.68911 15.2324 6.56227 16.3173L6.64951 16.3678C8.47698 17.4598 10.4342 17.7236 12.5555 17.1535C14.6728 16.5844 16.2537 15.3495 17.3252 13.429L17.3324 13.4167C18.4545 11.5255 18.7301 9.53447 18.1628 7.41039C17.5943 5.28216 16.3879 3.71338 14.5313 2.67168L14.4441 2.62122C12.5709 1.53633 10.589 1.27872 8.46729 1.84894C6.90315 2.26938 5.62943 3.04155 4.63466 4.17093L6.15991 5.70107L4.60592 6.00278L2.73785 6.36523L1.5 6.60618L1.75558 5.36642L2.13638 3.51295L2.45148 1.98074L3.89154 3.42542C5.01723 2.16656 6.45448 1.2985 8.19529 0.830562Z" fill="#3F70DB"/>
<path d="M10.5 4V6" stroke="#3F70DB" stroke-linecap="round"/>
<path d="M10.5 13V15" stroke="#3F70DB" stroke-linecap="round"/>
<path d="M7.00012 9.5H5.00012" stroke="#3F70DB" stroke-linecap="round"/>
<path d="M16.0001 9.5H14.0001" stroke="#3F70DB" stroke-linecap="round"/>
<circle cx="10.5" cy="9.5" r="4.5" fill="#3F70DB" fill-opacity="0.15" stroke="#3F70DB"/>
</svg>

<svg xmlns="http://www.w3.org/2000/svg" width="20" height="20" fill="none" viewBox="0 0 20 20"><path fill="#3f70db" d="M8.195.83c2.387-.641 4.657-.349 6.775.878l.08.047v.001c2.108 1.185 3.489 2.989 4.128 5.382.64 2.394.326 4.674-.935 6.806-1.21 2.169-3.024 3.585-5.415 4.228-2.385.64-4.633.343-6.71-.896l-.081-.045c-2.118-1.227-3.505-3.053-4.145-5.448a.526.526 0 1 1 1.015-.273c.569 2.13 1.782 3.722 3.655 4.807l.088.05c1.827 1.093 3.784 1.357 5.906.787 2.117-.57 3.698-1.804 4.77-3.725l.006-.012c1.122-1.892 1.398-3.883.83-6.007-.568-2.128-1.774-3.697-3.63-4.738l-.088-.05c-1.873-1.086-3.855-1.343-5.977-.773-1.564.42-2.838 1.193-3.832 2.322L6.16 5.7l-1.554.302-1.868.362-1.238.241.256-1.24.38-1.853.315-1.532 1.44 1.444C5.018 2.167 6.455 1.3 8.196.831"/><path stroke="#3f70db" stroke-linecap="round" d="M10.5 4v2M10.5 13v2M7 9.5H5M16 9.5h-2"/><circle cx="10.5" cy="9.5" r="4.5" fill="#3f70db" fill-opacity=".15" stroke="#3f70db"/></svg>
